X: 3746
T: Bird's Nest, The
R: reel
M: 4/4
K: Adorian
c~A3 GAAG|AzAB cded|c~A3 G2BG|Aage d2ed|
c~A3 GAAG|~A3B cded|c~A3 GAAG|Aage d2cd||
eaag egdg|ecgc egcg|eaag edcd|eage d2cd|
eaag egdg|ecgc egcc'|aegf edcd|eage d2ed||

